src/fantasticon/icons/trash.svg

<svg height="800" viewBox="0 0 56 56" width="800" xmlns="http://www.w3.org/2000/svg"><path d="m44.5235 48.6602 1.6172-34.2657h2.3437c.961 0 1.7343-.7969 1.7343-1.7578s-.7733-1.7812-1.7343-1.7812h-10.2422v-3.5157c0-3.3515-2.2734-5.5312-5.8827-5.5312h-8.7657c-3.6094 0-5.8594 2.1797-5.8594 5.5312v3.5157h-10.1953c-.9375 0-1.7578.8203-1.7578 1.7812s.8203 1.7578 1.7578 1.7578h2.3438l1.6171 34.2891c.1641 3.375 2.3907 5.5078 5.7657 5.5078h21.4922c3.3516 0 5.6016-2.1563 5.7656-5.5312zm-23.0391-41.086c0-1.3359.9844-2.2734 2.3907-2.2734h8.2265c1.4297 0 2.4141.9375 2.4141 2.2734v3.2813h-13.0313zm-3.8671 43.1016c-1.3594 0-2.3673-1.0313-2.4376-2.3906l-1.6406-33.8907h28.8516l-1.5469 33.8907c-.0703 1.3828-1.0547 2.3906-2.4375 2.3906zm17.3437-4.125c.7734 0 1.3594-.6328 1.3828-1.5235l.7031-24.75c.0235-.8906-.5859-1.5468-1.3828-1.5468-.7265 0-1.3359.6797-1.3593 1.5234l-.7032 24.7734c-.0234.8438.5625 1.5235 1.3594 1.5235zm-13.8984 0c.7969 0 1.3828-.6797 1.3593-1.5235l-.7031-24.7734c-.0234-.8437-.6562-1.5234-1.3828-1.5234-.7969 0-1.3828.6562-1.3594 1.5468l.7266 24.75c.0234.8907.5859 1.5235 1.3594 1.5235zm8.3672-1.5235v-24.7734c0-.8437-.6329-1.5234-1.4063-1.5234-.7735 0-1.4297.6797-1.4297 1.5234v24.7734c0 .8438.6562 1.5235 1.4297 1.5235.75 0 1.4063-.6797 1.4063-1.5235z"/></svg>

<?xml version="1.0" encoding="utf-8"?><!-- Uploaded to: SVG Repo, www.svgrepo.com, Generator: SVG Repo Mixer Tools -->
<svg fill="#000000" width="800px" height="800px" viewBox="0 0 56 56" xmlns="http://www.w3.org/2000/svg"><path d="M 44.5235 48.6602 L 46.1407 14.3945 L 48.4844 14.3945 C 49.4454 14.3945 50.2187 13.5976 50.2187 12.6367 C 50.2187 11.6758 49.4454 10.8555 48.4844 10.8555 L 38.2422 10.8555 L 38.2422 7.3398 C 38.2422 3.9883 35.9688 1.8086 32.3595 1.8086 L 23.5938 1.8086 C 19.9844 1.8086 17.7344 3.9883 17.7344 7.3398 L 17.7344 10.8555 L 7.5391 10.8555 C 6.6016 10.8555 5.7813 11.6758 5.7813 12.6367 C 5.7813 13.5976 6.6016 14.3945 7.5391 14.3945 L 9.8829 14.3945 L 11.5000 48.6836 C 11.6641 52.0586 13.8907 54.1914 17.2657 54.1914 L 38.7579 54.1914 C 42.1095 54.1914 44.3595 52.0351 44.5235 48.6602 Z M 21.4844 7.5742 C 21.4844 6.2383 22.4688 5.3008 23.8751 5.3008 L 32.1016 5.3008 C 33.5313 5.3008 34.5157 6.2383 34.5157 7.5742 L 34.5157 10.8555 L 21.4844 10.8555 Z M 17.6173 50.6758 C 16.2579 50.6758 15.2500 49.6445 15.1797 48.2852 L 13.5391 14.3945 L 42.3907 14.3945 L 40.8438 48.2852 C 40.7735 49.6680 39.7891 50.6758 38.4063 50.6758 Z M 34.9610 46.5508 C 35.7344 46.5508 36.3204 45.9180 36.3438 45.0273 L 37.0469 20.2773 C 37.0704 19.3867 36.4610 18.7305 35.6641 18.7305 C 34.9376 18.7305 34.3282 19.4102 34.3048 20.2539 L 33.6016 45.0273 C 33.5782 45.8711 34.1641 46.5508 34.9610 46.5508 Z M 21.0626 46.5508 C 21.8595 46.5508 22.4454 45.8711 22.4219 45.0273 L 21.7188 20.2539 C 21.6954 19.4102 21.0626 18.7305 20.3360 18.7305 C 19.5391 18.7305 18.9532 19.3867 18.9766 20.2773 L 19.7032 45.0273 C 19.7266 45.9180 20.2891 46.5508 21.0626 46.5508 Z M 29.4298 45.0273 L 29.4298 20.2539 C 29.4298 19.4102 28.7969 18.7305 28.0235 18.7305 C 27.2500 18.7305 26.5938 19.4102 26.5938 20.2539 L 26.5938 45.0273 C 26.5938 45.8711 27.2500 46.5508 28.0235 46.5508 C 28.7735 46.5508 29.4298 45.8711 29.4298 45.0273 Z"/></svg>
